X:1
T:Title
%%score { ( 1 3 ) | 2 }
L:1/8
M:4/4
K:A
V:1 treble nm="Grand Piano"
V:3 treble 
V:2 bass 
V:1
 z4 z2[Q:1/4=100] A>B | c>c c>B A2 [EA]>[EG] |[M:3/4] [DF]>[EG] [FA]>[DF] [CE]2 |[M:1/4] [EA]>B | %4
[M:4/4] c2 c2 e2 c2 |[M:3/4] [GB]6 |[M:1/4] A>B |[M:3/4] c>c c>B A2 |[M:1/4] [EA]>[EG] | %9
[M:4/4] [DF]>[EG] [FA]>[DF] [CE]2 [EA]>B | c2 [Fd]>[Fd] [Ec]2 [DB]2 |[M:3/4] [A,CA]6 | %12
[M:1/4] [CEA]>[A,EG] |[M:4/4] [DF]6 z2 | z2 A,2 A,2 [A,EA]>B | c2 c2 e2 c2 |[M:3/4] [GB]6 | %17
[M:1/4] A>B |[M:3/4] c>c c>B A2 |[M:1/4] [EA]>[EG] |[M:4/4] [DF]>[EG] [FA]>[DF] [CE]2 [EA]>B | %21
 c2 [Fd]>[Fd] [Ec]2 [DB]2 |[M:7/4] [CA]6 z2 z2 z4 |] %23
V:2
 z4 z2 [A,C]>[A,D] | [A,E]>[A,E] [A,E]>[A,D] [A,C]2 [C,A,]>[C,A,] | %2
[M:3/4] [D,A,]>[D,A,] [D,A,]>[D,A,] [A,,A,]2 |[M:1/4] [C,A,]>[E,G,E] | %4
[M:4/4][K:treble] [A,E]2 [A,E]2 [A,CE]2 [A,EA]2 |[M:3/4][K:bass] [E,E]6 |[M:1/4] [A,C]>[A,D] | %7
[M:3/4] [A,E]>[A,E] [A,E]>[A,D] [A,C]2 |[M:1/4] [C,A,]>[C,A,] | %9
[M:4/4] [D,A,]>[D,A,] [D,A,]>[D,A,] [A,,A,]2 [C,A,]>[E,G,E] | %10
 [A,E]2 [D,A,]>[D,A,] [E,A,]2 [E,G,]2 |[M:3/4] A,,6 |[M:1/4] A,,>C, |[M:4/4] D,2 D,2 D,2 [D,A,]2 | %14
 [A,,A,]2 A,,2 A,,2 C,>[E,G,E] | [A,E]2 [A,E]2 [A,CE]2 [A,EA]2 |[M:3/4][K:bass] [E,E]6 | %17
[M:1/4] [A,C]>[A,D] |[M:3/4] [A,E]>[A,E] [A,E]>[A,D] [A,C]2 |[M:1/4] [C,A,]>[C,A,] | %20
[M:4/4] [D,A,]>[D,A,] [D,A,]>[D,A,] [A,,A,]2 [C,A,]>[E,G,E] | %21
 [A,E]2 [D,A,]>[D,A,] [E,A,]2 [E,G,]2 |[M:7/4] [A,,A,]6 z2 z2 z4 |] %23
V:3
 x8 | x8 |[M:3/4] x6 |[M:1/4] x2 |[M:4/4] x8 |[M:3/4] x6 |[M:1/4] x2 |[M:3/4] x6 |[M:1/4] x2 | %9
[M:4/4] x8 | x8 |[M:3/4] x6 |[M:1/4] x2 |[M:4/4] A,2 A,2 A,2 [FA]>[DF] | [CE]6 z2 | x8 | %16
[M:3/4] x6 |[M:1/4] x2 |[M:3/4] x6 |[M:1/4] x2 |[M:4/4] x8 | x8 |[M:7/4] x14 |] %23

